shader_type canvas_item;

void vertex() {
	// Called for every vertex the material is visible on.
}

void fragment() {
	//COLOR = texture(TEXTURE, )
	//if( int(UV.x) % 20 == 0 ) {
		//COLOR.r = 255.0;
	//}
	//COLOR.r = float(int(UV.x * 100.0) % 20);
	// Called for every pixel the material is visible on.
}

//void light() {
//	// Called for every pixel for every light affecting the CanvasItem.
//	// Uncomment to replace the default light processing function with this one.
//}
